src/16/actions/document-edit-decrypt.svg

<svg xmlns="http://www.w3.org/2000/svg" width="16" height="16" viewBox="0 0 16 16">
 <defs>
  <style id="current-color-scheme" type="text/css">
   .ColorScheme-Text { color:#565656; } .ColorScheme-Highlight { color:#5294e2; }
  </style>
 </defs>
 <path style="fill:currentColor" class="ColorScheme-Text" d="m2 2v2h2v-2h-2zm5 0v2h2v-2h-2zm5 0v2h2v-2h-2zm-8 3v2h2v-2h-2zm6 0v2h2v-2h-2zm-8 3v6.01c0 1 1 1 1 1h10s1 0 1-1v-5.9905h-2v4.9865h-8v-5.006h-2z"/>
</svg>

<svg xmlns="http://www.w3.org/2000/svg" width="16" height="16"><defs><style id="current-color-scheme" type="text/css"></style></defs><path d="M2 2v2h2V2H2zm5 0v2h2V2H7zm5 0v2h2V2h-2zM4 5v2h2V5H4zm6 0v2h2V5h-2zM2 8v6.01c0 1 1 1 1 1h10s1 0 1-1V8.02h-2v4.986H4V8H2z" fill="currentColor" color="#565656"/></svg>
